!! Stephen C. Foster, "My Wife is a Most Knowing Woman"
!! from 'Stephen Foster Song Book' Dover Publications (New York) pp. 73-75
!! NOTE:  Leading and trailing bars of rest have been omitted.
**kern
*M6/8
*MM78
*E-:
8b-
=1
8e-
8b-
8g
8g
8b-
8e-
=2
8f
4e-
4r
8b-
=3
8b-
8cc
8b-
8ee-
8dd
8cc
=4
2b-
8r
8b-
=5
8e-
8b-
8g
8g
8b-
8e-
=6
8f
4e-
4r
8g
=7
8f
8g
8f
8ee-
8dd
8cc
=8
2dd
8r
8cc
=9
8b-
8cc
8b-
8ff
8ee-
8dd
=10
8ee-
4b-
4r
8g
=11
8g
8f
8e-
8e-
8f
8g
=12
2f
8r
16cc
16b-
=13
8b-
8cc
8b-
8ff
8ee-
8dd
=14
8ee-
4b-
4r
8cc
=15
8b-
8a-
8g
8a-
8g
8f
=16
2e-
8r
8b-
=17
8e-
8b-
8g
8g
8b-
8e-
=18
8f
4e-
4cc;
8b-
=19
8b-
8cc
8b-
8b-
8cc
8dd
=20
8ee-
4e-
8r
==
*-
